<?xml version="1.0" encoding="UTF-8"?>
<map version="1.10" tiledversion="1.12.2" class="Ground" orientation="orthogonal" renderorder="right-down" width="36" height="20" tilewidth="32" tileheight="32" infinite="0" nextlayerid="4" nextobjectid="737">
 <editorsettings>
  <export target="MAP01.json" format="json"/>
 </editorsettings>
 <tileset firstgid="1" name="OBJ01" tilewidth="32" tileheight="32" tilecount="16" columns="4">
  <image source="../Sprites/OBJ01.png" width="128" height="128"/>
 </tileset>
 <tileset firstgid="17" name="TIL01" tilewidth="32" tileheight="32" tilecount="36" columns="6">
  <image source="../Sprites/TIL01.png" width="192" height="192"/>
 </tileset>
 <tileset firstgid="53" name="TIL01" tilewidth="32" tileheight="32" tilecount="0" columns="6">
  <image source="E:/NewGame/Sprites/TIL01.png" width="192" height="192"/>
 </tileset>
 <layer id="1" name="Ground" class="Ground" width="36" height="20">
  <data encoding="csv">
28,28,28,28,3221225494,3221225493,3221225493,3221225493,3221225493,3221225493,3221225493,3221225493,3221225493,3221225493,3221225493,3221225493,3221225493,1610612758,28,28,28,28,28,28,28,28,28,28,28,28,28,28,28,28,28,28,
28,28,28,28,2684354582,2684354580,24,24,24,2684354589,24,24,24,24,24,24,24,1610612757,28,28,3221225494,3221225493,3221225493,3221225493,3221225493,3221225493,1610612758,28,28,28,28,28,28,28,28,28,
28,28,28,28,3221225494,3221225492,3221225496,3221225496,1610612760,2684354589,24,3221225502,3221225496,3221225496,29,24,24,1610612757,28,28,2684354581,24,1610612760,3221225496,2684354584,2684354584,1610612756,1610612758,28,28,28,28,28,28,28,28,
28,28,28,3221225494,3221225492,24,29,24,1610612760,1610612760,1610612760,24,24,2684354584,2684354584,24,24,1610612757,28,28,2684354581,24,1610612760,1610612760,1610612760,2684354584,2684354584,1610612756,1610612758,28,28,28,28,28,28,28,
28,28,28,2684354581,24,24,1610612760,2684354584,2684354584,3221225501,1610612760,1610612760,24,2684354584,1610612766,2684354584,24,1610612756,1610612758,28,2684354581,24,2684354589,2684354589,1610612760,29,1610612760,3221225496,1610612756,1610612758,28,28,28,28,28,28,
28,28,28,2684354581,1610612760,1610612760,2684354584,2684354590,3221225502,24,24,24,1610612760,24,2684354584,24,24,24,1610612756,1610612758,2684354581,24,1610612766,2684354584,3221225501,3221225502,1610612760,24,24,1610612756,3221225493,3221225493,3221225493,1610612758,28,28,
28,28,28,2684354581,1610612760,2684354584,24,24,1610612760,24,24,24,24,24,1610612760,2684354584,24,24,24,1610612757,2684354581,24,24,24,3221225496,2684354584,1610612760,1610612765,24,30,24,1610612765,1610612760,1610612757,28,28,
28,28,28,2684354581,2684354584,2684354584,24,24,1610612760,24,24,24,24,24,24,2684354584,3221225496,24,24,1610612757,2684354581,24,17,18,2684354577,24,1610612760,3221225496,3221225496,30,24,1610612760,24,1610612756,1610612758,28,
28,28,28,2684354581,2684354584,30,3221225496,2684354589,1610612760,24,24,24,24,24,1610612765,24,3221225496,1610612760,24,32,2147483680,24,1610612754,23,2684354579,18,18,18,18,18,18,2684354577,3221225496,24,1610612757,28,
28,28,3221225494,3221225492,2684354584,3221225496,3221225496,24,24,24,3221225496,2684354584,24,24,1610612765,24,3221225496,3221225496,24,1610612757,2684354581,24,1610612754,23,23,23,23,23,23,23,23,2684354579,2684354577,24,1610612757,28,
28,28,2684354581,3221225496,3221225496,3221225496,3221225496,3221225496,1610612760,24,2684354584,30,24,24,24,24,3221225496,24,24,1610612757,2684354581,2684354590,1610612754,23,23,25,2684354583,2684354583,3221225495,1610612759,1610612759,23,2684354579,2684354577,1610612757,28,
28,28,2684354581,3221225496,3221225496,24,3221225496,3221225501,24,3221225496,24,24,1610612760,24,24,2684354584,1610612760,24,24,536870933,3758096405,24,1610612754,23,3221225503,23,1610612759,3221225495,2684354583,2684354585,23,23,23,2684354578,1610612757,28,
28,28,2684354581,24,3221225496,1610612766,2684354584,24,24,24,3221225496,2684354584,2684354584,24,24,1610612760,2684354584,24,24,536870933,3758096405,24,1610612754,23,23,23,3221225495,2684354591,2684354583,2684354583,2684354583,23,23,2684354578,1610612757,28,
28,28,2684354581,24,24,24,2684354584,2684354584,24,24,3221225496,24,24,30,24,1610612760,24,24,20,22,3758096405,1610612765,1610612754,23,23,23,1610612759,3221225495,23,23,3221225497,23,23,2684354578,1610612757,28,
28,28,2684354581,1610612760,24,24,24,24,24,24,3221225496,24,24,24,24,2684354584,1610612760,24,1610612757,28,3758096405,24,1610612754,23,1610612759,1610612759,2684354585,2684354583,2684354583,23,3221225497,23,23,2684354578,1610612757,28,
28,28,2684354581,2684354584,2684354584,24,24,24,24,24,3221225502,1610612760,24,24,2684354590,24,2684354584,24,1610612757,28,3758096405,24,1610612754,23,1610612759,1610612759,23,23,1610612759,1610612759,3221225495,1610612759,23,2684354578,1610612757,28,
3221225493,1610612758,2684354581,24,24,24,3221225496,24,24,3221225496,3221225496,2684354584,1610612765,3221225496,24,3221225496,2684354584,3221225496,1610612757,28,2684354581,24,1610612754,23,23,23,23,23,23,23,1610612767,23,23,2684354578,1610612757,28,
24,32,2147483680,24,24,24,29,24,1610612760,1610612760,2684354590,3221225496,3221225496,20,21,2684354580,3221225501,3221225496,1610612757,28,2684354581,24,1610612754,23,23,25,23,23,1610612759,2684354583,1610612767,1610612759,23,2684354578,1610612757,28,
21,22,2684354581,24,24,2684354584,24,1610612760,1610612760,24,3221225496,3221225496,1610612760,1610612757,28,2684354582,21,21,22,28,2684354581,3221225502,1610612754,23,2684354583,2684354591,2684354583,23,1610612761,31,31,3221225495,23,2684354578,1610612757,28,
28,28,2684354581,24,24,24,2684354584,3221225496,2684354584,24,24,24,24,1610612757,28,28,28,28,28,28,2684354581,24,1610612754,23,23,23,2684354583,3221225495,3221225495,23,23,23,23,2684354578,1610612757,28
</data>
 </layer>
 <objectgroup color="#000000" id="2" name="Object" class="Object">
  <object id="191" gid="2147483657" x="672" y="544" width="32" height="32">
   <properties>
    <property name="block" type="bool" value="true"/>
    <property name="destructible" type="bool" value="false"/>
    <property name="visible" type="bool" value="true"/>
   </properties>
  </object>
  <object id="192" gid="2147483657" x="544" y="416" width="32" height="32">
   <properties>
    <property name="block" type="bool" value="true"/>
    <property name="destructible" type="bool" value="false"/>
    <property name="visible" type="bool" value="true"/>
   </properties>
  </object>
  <object id="193" gid="2147483657" x="544" y="480" width="32" height="32">
   <properties>
    <property name="block" type="bool" value="true"/>
    <property name="destructible" type="bool" value="false"/>
    <property name="visible" type="bool" value="true"/>
   </properties>
  </object>
  <object id="194" gid="2147483657" x="544" y="544" width="32" height="32">
   <properties>
    <property name="block" type="bool" value="true"/>
    <property name="destructible" type="bool" value="false"/>
    <property name="visible" type="bool" value="true"/>
   </properties>
  </object>
  <object id="195" gid="2147483657" x="480" y="544" width="32" height="32">
   <properties>
    <property name="block" type="bool" value="true"/>
    <property name="destructible" type="bool" value="false"/>
    <property name="visible" type="bool" value="true"/>
   </properties>
  </object>
  <object id="196" gid="2147483657" x="416" y="544" width="32" height="32">
   <properties>
    <property name="block" type="bool" value="true"/>
    <property name="destructible" type="bool" value="false"/>
    <property name="visible" type="bool" value="true"/>
   </properties>
  </object>
  <object id="197" gid="2147483657" x="352" y="544" width="32" height="32">
   <properties>
    <property name="block" type="bool" value="true"/>
    <property name="destructible" type="bool" value="false"/>
    <property name="visible" type="bool" value="true"/>
   </properties>
  </object>
  <object id="198" gid="2147483657" x="352" y="608" width="32" height="32">
   <properties>
    <property name="block" type="bool" value="true"/>
    <property name="destructible" type="bool" value="false"/>
    <property name="visible" type="bool" value="true"/>
   </properties>
  </object>
  <object id="199" gid="2147483657" x="288" y="608" width="32" height="32">
   <properties>
    <property name="block" type="bool" value="true"/>
    <property name="destructible" type="bool" value="false"/>
    <property name="visible" type="bool" value="true"/>
   </properties>
  </object>
  <object id="200" gid="2147483657" x="224" y="608" width="32" height="32">
   <properties>
    <property name="block" type="bool" value="true"/>
    <property name="destructible" type="bool" value="false"/>
    <property name="visible" type="bool" value="true"/>
   </properties>
  </object>
  <object id="201" gid="2147483657" x="160" y="608" width="32" height="32">
   <properties>
    <property name="block" type="bool" value="true"/>
    <property name="destructible" type="bool" value="false"/>
    <property name="visible" type="bool" value="true"/>
   </properties>
  </object>
  <object id="202" gid="2147483657" x="96" y="608" width="32" height="32">
   <properties>
    <property name="block" type="bool" value="true"/>
    <property name="destructible" type="bool" value="false"/>
    <property name="visible" type="bool" value="true"/>
   </properties>
  </object>
  <object id="203" gid="2147483657" x="96" y="544" width="32" height="32">
   <properties>
    <property name="block" type="bool" value="true"/>
    <property name="destructible" type="bool" value="false"/>
    <property name="visible" type="bool" value="true"/>
   </properties>
  </object>
  <object id="204" gid="2147483657" x="160" y="544" width="32" height="32">
   <properties>
    <property name="block" type="bool" value="true"/>
    <property name="destructible" type="bool" value="false"/>
    <property name="visible" type="bool" value="true"/>
   </properties>
  </object>
  <object id="205" gid="2147483657" x="224" y="544" width="32" height="32">
   <properties>
    <property name="block" type="bool" value="true"/>
    <property name="destructible" type="bool" value="false"/>
    <property name="visible" type="bool" value="true"/>
   </properties>
  </object>
  <object id="206" gid="2147483657" x="288" y="544" width="32" height="32">
   <properties>
    <property name="block" type="bool" value="true"/>
    <property name="destructible" type="bool" value="false"/>
    <property name="visible" type="bool" value="true"/>
   </properties>
  </object>
  <object id="207" gid="2147483657" x="480" y="480" width="32" height="32">
   <properties>
    <property name="block" type="bool" value="true"/>
    <property name="destructible" type="bool" value="false"/>
    <property name="visible" type="bool" value="true"/>
   </properties>
  </object>
  <object id="208" gid="2147483657" x="416" y="480" width="32" height="32">
   <properties>
    <property name="block" type="bool" value="true"/>
    <property name="destructible" type="bool" value="false"/>
    <property name="visible" type="bool" value="true"/>
   </properties>
  </object>
  <object id="209" gid="2147483657" x="352" y="480" width="32" height="32">
   <properties>
    <property name="block" type="bool" value="true"/>
    <property name="destructible" type="bool" value="false"/>
    <property name="visible" type="bool" value="true"/>
   </properties>
  </object>
  <object id="210" gid="2147483657" x="288" y="480" width="32" height="32">
   <properties>
    <property name="block" type="bool" value="true"/>
    <property name="destructible" type="bool" value="false"/>
    <property name="visible" type="bool" value="true"/>
   </properties>
  </object>
  <object id="211" gid="2147483657" x="224" y="480" width="32" height="32">
   <properties>
    <property name="block" type="bool" value="true"/>
    <property name="destructible" type="bool" value="false"/>
    <property name="visible" type="bool" value="true"/>
   </properties>
  </object>
  <object id="212" gid="2147483657" x="160" y="480" width="32" height="32">
   <properties>
    <property name="block" type="bool" value="true"/>
    <property name="destructible" type="bool" value="false"/>
    <property name="visible" type="bool" value="true"/>
   </properties>
  </object>
  <object id="213" gid="2147483657" x="96" y="480" width="32" height="32">
   <properties>
    <property name="block" type="bool" value="true"/>
    <property name="destructible" type="bool" value="false"/>
    <property name="visible" type="bool" value="true"/>
   </properties>
  </object>
  <object id="214" gid="2147483657" x="96" y="416" width="32" height="32">
   <properties>
    <property name="block" type="bool" value="true"/>
    <property name="destructible" type="bool" value="false"/>
    <property name="visible" type="bool" value="true"/>
   </properties>
  </object>
  <object id="215" gid="2147483657" x="96" y="352" width="32" height="32">
   <properties>
    <property name="block" type="bool" value="true"/>
    <property name="destructible" type="bool" value="false"/>
    <property name="visible" type="bool" value="true"/>
   </properties>
  </object>
  <object id="216" gid="2147483657" x="160" y="352" width="32" height="32">
   <properties>
    <property name="block" type="bool" value="true"/>
    <property name="destructible" type="bool" value="false"/>
    <property name="visible" type="bool" value="true"/>
   </properties>
  </object>
  <object id="217" gid="2147483657" x="224" y="352" width="32" height="32">
   <properties>
    <property name="block" type="bool" value="true"/>
    <property name="destructible" type="bool" value="false"/>
    <property name="visible" type="bool" value="true"/>
   </properties>
  </object>
  <object id="218" gid="2147483657" x="224" y="416" width="32" height="32">
   <properties>
    <property name="block" type="bool" value="true"/>
    <property name="destructible" type="bool" value="false"/>
    <property name="visible" type="bool" value="true"/>
   </properties>
  </object>
  <object id="219" gid="2147483657" x="160" y="416" width="32" height="32">
   <properties>
    <property name="block" type="bool" value="true"/>
    <property name="destructible" type="bool" value="false"/>
    <property name="visible" type="bool" value="true"/>
   </properties>
  </object>
  <object id="220" gid="2147483657" x="288" y="416" width="32" height="32">
   <properties>
    <property name="block" type="bool" value="true"/>
    <property name="destructible" type="bool" value="false"/>
    <property name="visible" type="bool" value="true"/>
   </properties>
  </object>
  <object id="221" gid="2147483657" x="352" y="416" width="32" height="32">
   <properties>
    <property name="block" type="bool" value="true"/>
    <property name="destructible" type="bool" value="false"/>
    <property name="visible" type="bool" value="true"/>
   </properties>
  </object>
  <object id="222" gid="2147483657" x="416" y="416" width="32" height="32">
   <properties>
    <property name="block" type="bool" value="true"/>
    <property name="destructible" type="bool" value="false"/>
    <property name="visible" type="bool" value="true"/>
   </properties>
  </object>
  <object id="223" gid="2147483657" x="480" y="416" width="32" height="32">
   <properties>
    <property name="block" type="bool" value="true"/>
    <property name="destructible" type="bool" value="false"/>
    <property name="visible" type="bool" value="true"/>
   </properties>
  </object>
  <object id="224" gid="2147483657" x="576" y="352" width="32" height="32">
   <properties>
    <property name="block" type="bool" value="true"/>
    <property name="destructible" type="bool" value="false"/>
    <property name="visible" type="bool" value="true"/>
   </properties>
  </object>
  <object id="225" gid="2147483657" x="544" y="352" width="32" height="32">
   <properties>
    <property name="block" type="bool" value="true"/>
    <property name="destructible" type="bool" value="false"/>
    <property name="visible" type="bool" value="true"/>
   </properties>
  </object>
  <object id="226" gid="2147483657" x="512" y="352" width="32" height="32">
   <properties>
    <property name="block" type="bool" value="true"/>
    <property name="destructible" type="bool" value="false"/>
    <property name="visible" type="bool" value="true"/>
   </properties>
  </object>
  <object id="227" gid="2147483657" x="480" y="352" width="32" height="32">
   <properties>
    <property name="block" type="bool" value="true"/>
    <property name="destructible" type="bool" value="false"/>
    <property name="visible" type="bool" value="true"/>
   </properties>
  </object>
  <object id="228" gid="2147483657" x="416" y="352" width="32" height="32">
   <properties>
    <property name="block" type="bool" value="true"/>
    <property name="destructible" type="bool" value="false"/>
    <property name="visible" type="bool" value="true"/>
   </properties>
  </object>
  <object id="229" gid="2147483657" x="352" y="352" width="32" height="32">
   <properties>
    <property name="block" type="bool" value="true"/>
    <property name="destructible" type="bool" value="false"/>
    <property name="visible" type="bool" value="true"/>
   </properties>
  </object>
  <object id="230" gid="2147483657" x="288" y="352" width="32" height="32">
   <properties>
    <property name="block" type="bool" value="true"/>
    <property name="destructible" type="bool" value="false"/>
    <property name="visible" type="bool" value="true"/>
   </properties>
  </object>
  <object id="231" gid="2147483657" x="544" y="288" width="32" height="32">
   <properties>
    <property name="block" type="bool" value="true"/>
    <property name="destructible" type="bool" value="false"/>
    <property name="visible" type="bool" value="true"/>
   </properties>
  </object>
  <object id="232" gid="2147483657" x="480" y="288" width="32" height="32">
   <properties>
    <property name="block" type="bool" value="true"/>
    <property name="destructible" type="bool" value="false"/>
    <property name="visible" type="bool" value="true"/>
   </properties>
  </object>
  <object id="233" gid="2147483657" x="416" y="288" width="32" height="32">
   <properties>
    <property name="block" type="bool" value="true"/>
    <property name="destructible" type="bool" value="false"/>
    <property name="visible" type="bool" value="true"/>
   </properties>
  </object>
  <object id="234" gid="2147483657" x="352" y="288" width="32" height="32">
   <properties>
    <property name="block" type="bool" value="true"/>
    <property name="destructible" type="bool" value="false"/>
    <property name="visible" type="bool" value="true"/>
   </properties>
  </object>
  <object id="235" gid="2147483657" x="288" y="288" width="32" height="32">
   <properties>
    <property name="block" type="bool" value="true"/>
    <property name="destructible" type="bool" value="false"/>
    <property name="visible" type="bool" value="true"/>
   </properties>
  </object>
  <object id="236" gid="2147483657" x="224" y="288" width="32" height="32">
   <properties>
    <property name="block" type="bool" value="true"/>
    <property name="destructible" type="bool" value="false"/>
    <property name="visible" type="bool" value="true"/>
   </properties>
  </object>
  <object id="237" gid="2147483657" x="160" y="288" width="32" height="32">
   <properties>
    <property name="block" type="bool" value="true"/>
    <property name="destructible" type="bool" value="false"/>
    <property name="visible" type="bool" value="true"/>
   </properties>
  </object>
  <object id="238" gid="2147483657" x="160" y="224" width="32" height="32">
   <properties>
    <property name="block" type="bool" value="true"/>
    <property name="destructible" type="bool" value="false"/>
    <property name="visible" type="bool" value="true"/>
   </properties>
  </object>
  <object id="239" gid="2147483657" x="224" y="224" width="32" height="32">
   <properties>
    <property name="block" type="bool" value="true"/>
    <property name="destructible" type="bool" value="false"/>
    <property name="visible" type="bool" value="true"/>
   </properties>
  </object>
  <object id="240" gid="2147483657" x="288" y="224" width="32" height="32">
   <properties>
    <property name="block" type="bool" value="true"/>
    <property name="destructible" type="bool" value="false"/>
    <property name="visible" type="bool" value="true"/>
   </properties>
  </object>
  <object id="241" gid="2147483657" x="352" y="224" width="32" height="32">
   <properties>
    <property name="block" type="bool" value="true"/>
    <property name="destructible" type="bool" value="false"/>
    <property name="visible" type="bool" value="true"/>
   </properties>
  </object>
  <object id="242" gid="2147483657" x="416" y="224" width="32" height="32">
   <properties>
    <property name="block" type="bool" value="true"/>
    <property name="destructible" type="bool" value="false"/>
    <property name="visible" type="bool" value="true"/>
   </properties>
  </object>
  <object id="243" gid="2147483657" x="480" y="224" width="32" height="32">
   <properties>
    <property name="block" type="bool" value="true"/>
    <property name="destructible" type="bool" value="false"/>
    <property name="visible" type="bool" value="true"/>
   </properties>
  </object>
  <object id="244" gid="2147483657" x="544" y="224" width="32" height="32">
   <properties>
    <property name="block" type="bool" value="true"/>
    <property name="destructible" type="bool" value="false"/>
    <property name="visible" type="bool" value="true"/>
   </properties>
  </object>
  <object id="245" gid="2147483657" x="480" y="160" width="32" height="32">
   <properties>
    <property name="block" type="bool" value="true"/>
    <property name="destructible" type="bool" value="false"/>
    <property name="visible" type="bool" value="true"/>
   </properties>
  </object>
  <object id="246" gid="2147483657" x="480" y="96" width="32" height="32">
   <properties>
    <property name="block" type="bool" value="true"/>
    <property name="destructible" type="bool" value="false"/>
    <property name="visible" type="bool" value="true"/>
   </properties>
  </object>
  <object id="247" gid="2147483657" x="416" y="96" width="32" height="32">
   <properties>
    <property name="block" type="bool" value="true"/>
    <property name="destructible" type="bool" value="false"/>
    <property name="visible" type="bool" value="true"/>
   </properties>
  </object>
  <object id="248" gid="2147483657" x="416" y="160" width="32" height="32">
   <properties>
    <property name="block" type="bool" value="true"/>
    <property name="destructible" type="bool" value="false"/>
    <property name="visible" type="bool" value="true"/>
   </properties>
  </object>
  <object id="249" gid="2147483657" x="352" y="160" width="32" height="32">
   <properties>
    <property name="block" type="bool" value="true"/>
    <property name="destructible" type="bool" value="false"/>
    <property name="visible" type="bool" value="true"/>
   </properties>
  </object>
  <object id="250" gid="2147483657" x="352" y="96" width="32" height="32">
   <properties>
    <property name="block" type="bool" value="true"/>
    <property name="destructible" type="bool" value="false"/>
    <property name="visible" type="bool" value="true"/>
   </properties>
  </object>
  <object id="251" gid="2147483657" x="288" y="96" width="32" height="32">
   <properties>
    <property name="block" type="bool" value="true"/>
    <property name="destructible" type="bool" value="false"/>
    <property name="visible" type="bool" value="true"/>
   </properties>
  </object>
  <object id="252" gid="2147483657" x="288" y="160" width="32" height="32">
   <properties>
    <property name="block" type="bool" value="true"/>
    <property name="destructible" type="bool" value="false"/>
    <property name="visible" type="bool" value="true"/>
   </properties>
  </object>
  <object id="253" gid="2147483657" x="224" y="160" width="32" height="32">
   <properties>
    <property name="block" type="bool" value="true"/>
    <property name="destructible" type="bool" value="false"/>
    <property name="visible" type="bool" value="true"/>
   </properties>
  </object>
  <object id="254" gid="2147483657" x="224" y="96" width="32" height="32">
   <properties>
    <property name="block" type="bool" value="true"/>
    <property name="destructible" type="bool" value="false"/>
    <property name="visible" type="bool" value="true"/>
   </properties>
  </object>
  <object id="255" gid="2147483657" x="160" y="160" width="32" height="32">
   <properties>
    <property name="block" type="bool" value="true"/>
    <property name="destructible" type="bool" value="false"/>
    <property name="visible" type="bool" value="true"/>
   </properties>
  </object>
  <object id="256" gid="2147483657" x="480" y="64" width="32" height="32">
   <properties>
    <property name="block" type="bool" value="true"/>
    <property name="destructible" type="bool" value="false"/>
    <property name="visible" type="bool" value="true"/>
   </properties>
  </object>
  <object id="257" gid="2147483657" x="384" y="640" width="32" height="32">
   <properties>
    <property name="block" type="bool" value="true"/>
    <property name="destructible" type="bool" value="false"/>
    <property name="visible" type="bool" value="true"/>
   </properties>
  </object>
  <object id="258" gid="2147483657" x="384" y="608" width="32" height="32">
   <properties>
    <property name="block" type="bool" value="true"/>
    <property name="destructible" type="bool" value="false"/>
    <property name="visible" type="bool" value="true"/>
   </properties>
  </object>
  <object id="259" gid="2147483657" x="672" y="480" width="32" height="32">
   <properties>
    <property name="block" type="bool" value="true"/>
    <property name="destructible" type="bool" value="false"/>
    <property name="visible" type="bool" value="true"/>
   </properties>
  </object>
  <object id="260" gid="2147483657" x="672" y="608" width="32" height="32">
   <properties>
    <property name="block" type="bool" value="true"/>
    <property name="destructible" type="bool" value="false"/>
    <property name="visible" type="bool" value="true"/>
   </properties>
  </object>
  <object id="261" gid="2147483657" x="672" y="640" width="32" height="32">
   <properties>
    <property name="block" type="bool" value="true"/>
    <property name="destructible" type="bool" value="false"/>
    <property name="visible" type="bool" value="true"/>
   </properties>
  </object>
  <object id="262" gid="2147483657" x="672" y="576" width="32" height="32">
   <properties>
    <property name="block" type="bool" value="true"/>
    <property name="destructible" type="bool" value="false"/>
    <property name="visible" type="bool" value="true"/>
   </properties>
  </object>
  <object id="263" gid="2147483657" x="672" y="384" width="32" height="32">
   <properties>
    <property name="block" type="bool" value="true"/>
    <property name="destructible" type="bool" value="false"/>
    <property name="visible" type="bool" value="true"/>
   </properties>
  </object>
  <object id="266" gid="2147483657" x="672" y="192" width="32" height="32">
   <properties>
    <property name="block" type="bool" value="true"/>
    <property name="destructible" type="bool" value="false"/>
    <property name="visible" type="bool" value="true"/>
   </properties>
  </object>
  <object id="267" gid="2147483657" x="672" y="128" width="32" height="32">
   <properties>
    <property name="block" type="bool" value="true"/>
    <property name="destructible" type="bool" value="false"/>
    <property name="visible" type="bool" value="true"/>
   </properties>
  </object>
  <object id="268" gid="2147483657" x="672" y="96" width="32" height="32">
   <properties>
    <property name="block" type="bool" value="true"/>
    <property name="destructible" type="bool" value="false"/>
    <property name="visible" type="bool" value="true"/>
   </properties>
  </object>
  <object id="269" gid="2147483657" x="704" y="96" width="32" height="32">
   <properties>
    <property name="block" type="bool" value="true"/>
    <property name="destructible" type="bool" value="false"/>
    <property name="visible" type="bool" value="true"/>
   </properties>
  </object>
  <object id="270" gid="2147483657" x="736" y="96" width="32" height="32">
   <properties>
    <property name="block" type="bool" value="true"/>
    <property name="destructible" type="bool" value="false"/>
    <property name="visible" type="bool" value="true"/>
   </properties>
  </object>
  <object id="271" gid="2147483657" x="768" y="96" width="32" height="32">
   <properties>
    <property name="block" type="bool" value="true"/>
    <property name="destructible" type="bool" value="false"/>
    <property name="visible" type="bool" value="true"/>
   </properties>
  </object>
  <object id="272" gid="2147483657" x="800" y="96" width="32" height="32">
   <properties>
    <property name="block" type="bool" value="true"/>
    <property name="destructible" type="bool" value="false"/>
    <property name="visible" type="bool" value="true"/>
   </properties>
  </object>
  <object id="273" gid="2147483657" x="736" y="128" width="32" height="32">
   <properties>
    <property name="block" type="bool" value="true"/>
    <property name="destructible" type="bool" value="false"/>
    <property name="visible" type="bool" value="true"/>
   </properties>
  </object>
  <object id="274" gid="2147483657" x="736" y="192" width="32" height="32">
   <properties>
    <property name="block" type="bool" value="true"/>
    <property name="destructible" type="bool" value="false"/>
    <property name="visible" type="bool" value="true"/>
   </properties>
  </object>
  <object id="275" gid="2147483657" x="800" y="192" width="32" height="32">
   <properties>
    <property name="block" type="bool" value="true"/>
    <property name="destructible" type="bool" value="false"/>
    <property name="visible" type="bool" value="true"/>
   </properties>
  </object>
  <object id="276" gid="2147483657" x="800" y="256" width="32" height="32">
   <properties>
    <property name="block" type="bool" value="true"/>
    <property name="destructible" type="bool" value="false"/>
    <property name="visible" type="bool" value="true"/>
   </properties>
  </object>
  <object id="277" gid="2147483657" x="864" y="256" width="32" height="32">
   <properties>
    <property name="block" type="bool" value="true"/>
    <property name="destructible" type="bool" value="false"/>
    <property name="visible" type="bool" value="true"/>
   </properties>
  </object>
  <object id="278" gid="2147483657" x="928" y="256" width="32" height="32">
   <properties>
    <property name="block" type="bool" value="true"/>
    <property name="destructible" type="bool" value="false"/>
    <property name="visible" type="bool" value="true"/>
   </properties>
  </object>
  <object id="279" gid="2147483657" x="992" y="256" width="32" height="32">
   <properties>
    <property name="block" type="bool" value="true"/>
    <property name="destructible" type="bool" value="false"/>
    <property name="visible" type="bool" value="true"/>
   </properties>
  </object>
  <object id="280" gid="2147483657" x="864" y="192" width="32" height="32">
   <properties>
    <property name="block" type="bool" value="true"/>
    <property name="destructible" type="bool" value="false"/>
    <property name="visible" type="bool" value="true"/>
   </properties>
  </object>
  <object id="281" gid="2147483657" x="800" y="128" width="32" height="32">
   <properties>
    <property name="block" type="bool" value="true"/>
    <property name="destructible" type="bool" value="false"/>
    <property name="visible" type="bool" value="true"/>
   </properties>
  </object>
  <object id="282" gid="2147483657" x="704" y="128" width="32" height="32">
   <properties>
    <property name="block" type="bool" value="true"/>
    <property name="destructible" type="bool" value="false"/>
    <property name="visible" type="bool" value="true"/>
   </properties>
  </object>
  <object id="283" gid="2147483657" x="512" y="64" width="32" height="32">
   <properties>
    <property name="block" type="bool" value="true"/>
    <property name="destructible" type="bool" value="false"/>
    <property name="visible" type="bool" value="true"/>
   </properties>
  </object>
  <object id="284" gid="2147483657" x="512" y="96" width="32" height="32">
   <properties>
    <property name="block" type="bool" value="true"/>
    <property name="destructible" type="bool" value="false"/>
    <property name="visible" type="bool" value="true"/>
   </properties>
  </object>
  <object id="285" gid="2147483657" x="448" y="64" width="32" height="32">
   <properties>
    <property name="block" type="bool" value="true"/>
    <property name="destructible" type="bool" value="false"/>
    <property name="visible" type="bool" value="true"/>
   </properties>
  </object>
  <object id="286" gid="2147483657" x="544" y="576" width="32" height="32">
   <properties>
    <property name="block" type="bool" value="true"/>
    <property name="destructible" type="bool" value="false"/>
    <property name="visible" type="bool" value="true"/>
   </properties>
  </object>
  <object id="287" gid="2147483657" x="512" y="576" width="32" height="32">
   <properties>
    <property name="block" type="bool" value="true"/>
    <property name="destructible" type="bool" value="false"/>
    <property name="visible" type="bool" value="true"/>
   </properties>
  </object>
  <object id="288" gid="2147483657" x="576" y="224" width="32" height="32">
   <properties>
    <property name="block" type="bool" value="true"/>
    <property name="destructible" type="bool" value="false"/>
    <property name="visible" type="bool" value="true"/>
   </properties>
  </object>
  <object id="289" gid="2147483657" x="512" y="224" width="32" height="32">
   <properties>
    <property name="block" type="bool" value="true"/>
    <property name="destructible" type="bool" value="false"/>
    <property name="visible" type="bool" value="true"/>
   </properties>
  </object>
  <object id="290" gid="10" x="672" y="416" width="32" height="32">
   <properties>
    <property name="block" type="bool" value="true"/>
    <property name="destructible" type="bool" value="false"/>
    <property name="visible" type="bool" value="true"/>
   </properties>
  </object>
  <object id="295" gid="9" x="800" y="320" width="32" height="32">
   <properties>
    <property name="block" type="bool" value="true"/>
    <property name="destructible" type="bool" value="false"/>
    <property name="visible" type="bool" value="true"/>
   </properties>
  </object>
  <object id="296" gid="9" x="864" y="320" width="32" height="32">
   <properties>
    <property name="block" type="bool" value="true"/>
    <property name="destructible" type="bool" value="false"/>
    <property name="visible" type="bool" value="true"/>
   </properties>
  </object>
  <object id="297" gid="9" x="928" y="320" width="32" height="32">
   <properties>
    <property name="block" type="bool" value="true"/>
    <property name="destructible" type="bool" value="false"/>
    <property name="visible" type="bool" value="true"/>
   </properties>
  </object>
  <object id="298" gid="9" x="992" y="320" width="32" height="32">
   <properties>
    <property name="block" type="bool" value="true"/>
    <property name="destructible" type="bool" value="false"/>
    <property name="visible" type="bool" value="true"/>
   </properties>
  </object>
  <object id="299" gid="9" x="992" y="384" width="32" height="32">
   <properties>
    <property name="block" type="bool" value="true"/>
    <property name="destructible" type="bool" value="false"/>
    <property name="visible" type="bool" value="true"/>
   </properties>
  </object>
  <object id="300" gid="9" x="928" y="384" width="32" height="32">
   <properties>
    <property name="block" type="bool" value="true"/>
    <property name="destructible" type="bool" value="false"/>
    <property name="visible" type="bool" value="true"/>
   </properties>
  </object>
  <object id="301" gid="9" x="864" y="384" width="32" height="32">
   <properties>
    <property name="block" type="bool" value="true"/>
    <property name="destructible" type="bool" value="false"/>
    <property name="visible" type="bool" value="true"/>
   </properties>
  </object>
  <object id="302" gid="9" x="736" y="384" width="32" height="32">
   <properties>
    <property name="block" type="bool" value="true"/>
    <property name="destructible" type="bool" value="false"/>
    <property name="visible" type="bool" value="true"/>
   </properties>
  </object>
  <object id="303" gid="9" x="736" y="448" width="32" height="32">
   <properties>
    <property name="block" type="bool" value="true"/>
    <property name="destructible" type="bool" value="false"/>
    <property name="visible" type="bool" value="true"/>
   </properties>
  </object>
  <object id="304" gid="9" x="800" y="448" width="32" height="32">
   <properties>
    <property name="block" type="bool" value="true"/>
    <property name="destructible" type="bool" value="false"/>
    <property name="visible" type="bool" value="true"/>
   </properties>
  </object>
  <object id="305" gid="9" x="864" y="448" width="32" height="32">
   <properties>
    <property name="block" type="bool" value="true"/>
    <property name="destructible" type="bool" value="false"/>
    <property name="visible" type="bool" value="true"/>
   </properties>
  </object>
  <object id="306" gid="9" x="928" y="448" width="32" height="32">
   <properties>
    <property name="block" type="bool" value="true"/>
    <property name="destructible" type="bool" value="false"/>
    <property name="visible" type="bool" value="true"/>
   </properties>
  </object>
  <object id="307" gid="9" x="992" y="448" width="32" height="32">
   <properties>
    <property name="block" type="bool" value="true"/>
    <property name="destructible" type="bool" value="false"/>
    <property name="visible" type="bool" value="true"/>
   </properties>
  </object>
  <object id="308" gid="9" x="992" y="512" width="32" height="32">
   <properties>
    <property name="block" type="bool" value="true"/>
    <property name="destructible" type="bool" value="false"/>
    <property name="visible" type="bool" value="true"/>
   </properties>
  </object>
  <object id="309" gid="9" x="992" y="576" width="32" height="32">
   <properties>
    <property name="block" type="bool" value="true"/>
    <property name="destructible" type="bool" value="false"/>
    <property name="visible" type="bool" value="true"/>
   </properties>
  </object>
  <object id="310" gid="9" x="992" y="640" width="32" height="32">
   <properties>
    <property name="block" type="bool" value="true"/>
    <property name="destructible" type="bool" value="false"/>
    <property name="visible" type="bool" value="true"/>
   </properties>
  </object>
  <object id="311" gid="9" x="928" y="640" width="32" height="32">
   <properties>
    <property name="block" type="bool" value="true"/>
    <property name="destructible" type="bool" value="false"/>
    <property name="visible" type="bool" value="true"/>
   </properties>
  </object>
  <object id="312" gid="9" x="864" y="640" width="32" height="32">
   <properties>
    <property name="block" type="bool" value="true"/>
    <property name="destructible" type="bool" value="false"/>
    <property name="visible" type="bool" value="true"/>
   </properties>
  </object>
  <object id="313" gid="9" x="800" y="640" width="32" height="32">
   <properties>
    <property name="block" type="bool" value="true"/>
    <property name="destructible" type="bool" value="false"/>
    <property name="visible" type="bool" value="true"/>
   </properties>
  </object>
  <object id="314" gid="9" x="736" y="640" width="32" height="32">
   <properties>
    <property name="block" type="bool" value="true"/>
    <property name="destructible" type="bool" value="false"/>
    <property name="visible" type="bool" value="true"/>
   </properties>
  </object>
  <object id="315" gid="9" x="768" y="576" width="32" height="32">
   <properties>
    <property name="block" type="bool" value="true"/>
    <property name="destructible" type="bool" value="false"/>
    <property name="visible" type="bool" value="true"/>
   </properties>
  </object>
  <object id="316" gid="9" x="800" y="576" width="32" height="32">
   <properties>
    <property name="block" type="bool" value="true"/>
    <property name="destructible" type="bool" value="false"/>
    <property name="visible" type="bool" value="true"/>
   </properties>
  </object>
  <object id="317" gid="9" x="832" y="576" width="32" height="32">
   <properties>
    <property name="block" type="bool" value="true"/>
    <property name="destructible" type="bool" value="false"/>
    <property name="visible" type="bool" value="true"/>
   </properties>
  </object>
  <object id="318" gid="9" x="864" y="576" width="32" height="32">
   <properties>
    <property name="block" type="bool" value="true"/>
    <property name="destructible" type="bool" value="false"/>
    <property name="visible" type="bool" value="true"/>
   </properties>
  </object>
  <object id="319" gid="9" x="928" y="576" width="32" height="32">
   <properties>
    <property name="block" type="bool" value="true"/>
    <property name="destructible" type="bool" value="false"/>
    <property name="visible" type="bool" value="true"/>
   </properties>
  </object>
  <object id="320" gid="9" x="928" y="512" width="32" height="32">
   <properties>
    <property name="block" type="bool" value="true"/>
    <property name="destructible" type="bool" value="false"/>
    <property name="visible" type="bool" value="true"/>
   </properties>
  </object>
  <object id="321" gid="9" x="864" y="512" width="32" height="32">
   <properties>
    <property name="block" type="bool" value="true"/>
    <property name="destructible" type="bool" value="false"/>
    <property name="visible" type="bool" value="true"/>
   </properties>
  </object>
  <object id="322" gid="9" x="800" y="512" width="32" height="32">
   <properties>
    <property name="block" type="bool" value="true"/>
    <property name="destructible" type="bool" value="false"/>
    <property name="visible" type="bool" value="true"/>
   </properties>
  </object>
  <object id="323" gid="9" x="736" y="512" width="32" height="32">
   <properties>
    <property name="block" type="bool" value="true"/>
    <property name="destructible" type="bool" value="false"/>
    <property name="visible" type="bool" value="true"/>
   </properties>
  </object>
  <object id="324" gid="9" x="736" y="576" width="32" height="32">
   <properties>
    <property name="block" type="bool" value="true"/>
    <property name="destructible" type="bool" value="false"/>
    <property name="visible" type="bool" value="true"/>
   </properties>
  </object>
  <object id="325" gid="10" x="672" y="256" width="32" height="32">
   <properties>
    <property name="block" type="bool" value="true"/>
    <property name="destructible" type="bool" value="false"/>
    <property name="visible" type="bool" value="true"/>
   </properties>
  </object>
  <object id="326" gid="10" x="672" y="320" width="32" height="32">
   <properties>
    <property name="block" type="bool" value="true"/>
    <property name="destructible" type="bool" value="false"/>
    <property name="visible" type="bool" value="true"/>
   </properties>
  </object>
  <object id="327" gid="9" x="736" y="320" width="32" height="32">
   <properties>
    <property name="block" type="bool" value="true"/>
    <property name="destructible" type="bool" value="false"/>
    <property name="visible" type="bool" value="true"/>
   </properties>
  </object>
  <object id="328" gid="9" x="736" y="256" width="32" height="32">
   <properties>
    <property name="block" type="bool" value="true"/>
    <property name="destructible" type="bool" value="false"/>
    <property name="visible" type="bool" value="true"/>
   </properties>
  </object>
  <object id="329" gid="10" x="896" y="544" width="32" height="32">
   <properties>
    <property name="block" type="bool" value="true"/>
    <property name="destructible" type="bool" value="false"/>
    <property name="visible" type="bool" value="true"/>
   </properties>
  </object>
  <object id="334" gid="10" x="960" y="416" width="32" height="32">
   <properties>
    <property name="block" type="bool" value="true"/>
    <property name="destructible" type="bool" value="false"/>
    <property name="visible" type="bool" value="true"/>
   </properties>
  </object>
  <object id="335" gid="10" x="320" y="384" width="32" height="32">
   <properties>
    <property name="block" type="bool" value="true"/>
    <property name="destructible" type="bool" value="false"/>
    <property name="visible" type="bool" value="true"/>
   </properties>
  </object>
  <object id="336" gid="10" x="192" y="512" width="32" height="32">
   <properties>
    <property name="block" type="bool" value="true"/>
    <property name="destructible" type="bool" value="false"/>
    <property name="visible" type="bool" value="true"/>
   </properties>
  </object>
  <object id="337" gid="10" x="384" y="192" width="32" height="32">
   <properties>
    <property name="block" type="bool" value="true"/>
    <property name="destructible" type="bool" value="false"/>
    <property name="visible" type="bool" value="true"/>
   </properties>
  </object>
  <object id="338" gid="10" x="192" y="256" width="32" height="32">
   <properties>
    <property name="block" type="bool" value="true"/>
    <property name="destructible" type="bool" value="false"/>
    <property name="visible" type="bool" value="true"/>
   </properties>
  </object>
  <object id="586" gid="16" x="416" y="640" width="32" height="32">
   <properties>
    <property name="block" type="bool" value="true"/>
    <property name="destructible" type="bool" value="false"/>
    <property name="visible" type="bool" value="false"/>
   </properties>
  </object>
  <object id="587" gid="16" x="416" y="608" width="32" height="32">
   <properties>
    <property name="block" type="bool" value="true"/>
    <property name="destructible" type="bool" value="false"/>
    <property name="visible" type="bool" value="false"/>
   </properties>
  </object>
  <object id="588" gid="16" x="416" y="576" width="32" height="32">
   <properties>
    <property name="block" type="bool" value="true"/>
    <property name="destructible" type="bool" value="false"/>
    <property name="visible" type="bool" value="false"/>
   </properties>
  </object>
  <object id="589" gid="16" x="448" y="576" width="32" height="32">
   <properties>
    <property name="block" type="bool" value="true"/>
    <property name="destructible" type="bool" value="false"/>
    <property name="visible" type="bool" value="false"/>
   </properties>
  </object>
  <object id="590" gid="16" x="480" y="576" width="32" height="32">
   <properties>
    <property name="block" type="bool" value="true"/>
    <property name="destructible" type="bool" value="false"/>
    <property name="visible" type="bool" value="false"/>
   </properties>
  </object>
  <object id="591" gid="16" x="480" y="608" width="32" height="32">
   <properties>
    <property name="block" type="bool" value="true"/>
    <property name="destructible" type="bool" value="false"/>
    <property name="visible" type="bool" value="false"/>
   </properties>
  </object>
  <object id="592" gid="16" x="512" y="608" width="32" height="32">
   <properties>
    <property name="block" type="bool" value="true"/>
    <property name="destructible" type="bool" value="false"/>
    <property name="visible" type="bool" value="false"/>
   </properties>
  </object>
  <object id="593" gid="16" x="544" y="608" width="32" height="32">
   <properties>
    <property name="block" type="bool" value="true"/>
    <property name="destructible" type="bool" value="false"/>
    <property name="visible" type="bool" value="false"/>
   </properties>
  </object>
  <object id="594" gid="16" x="576" y="608" width="32" height="32">
   <properties>
    <property name="block" type="bool" value="true"/>
    <property name="destructible" type="bool" value="false"/>
    <property name="visible" type="bool" value="false"/>
   </properties>
  </object>
  <object id="595" gid="16" x="576" y="576" width="32" height="32">
   <properties>
    <property name="block" type="bool" value="true"/>
    <property name="destructible" type="bool" value="false"/>
    <property name="visible" type="bool" value="false"/>
   </properties>
  </object>
  <object id="596" gid="16" x="576" y="544" width="32" height="32">
   <properties>
    <property name="block" type="bool" value="true"/>
    <property name="destructible" type="bool" value="false"/>
    <property name="visible" type="bool" value="false"/>
   </properties>
  </object>
  <object id="597" gid="16" x="576" y="512" width="32" height="32">
   <properties>
    <property name="block" type="bool" value="true"/>
    <property name="destructible" type="bool" value="false"/>
    <property name="visible" type="bool" value="false"/>
   </properties>
  </object>
  <object id="598" gid="16" x="576" y="480" width="32" height="32">
   <properties>
    <property name="block" type="bool" value="true"/>
    <property name="destructible" type="bool" value="false"/>
    <property name="visible" type="bool" value="false"/>
   </properties>
  </object>
  <object id="599" gid="16" x="576" y="448" width="32" height="32">
   <properties>
    <property name="block" type="bool" value="true"/>
    <property name="destructible" type="bool" value="false"/>
    <property name="visible" type="bool" value="false"/>
   </properties>
  </object>
  <object id="600" gid="16" x="608" y="448" width="32" height="32">
   <properties>
    <property name="block" type="bool" value="true"/>
    <property name="destructible" type="bool" value="false"/>
    <property name="visible" type="bool" value="false"/>
   </properties>
  </object>
  <object id="601" gid="16" x="608" y="416" width="32" height="32">
   <properties>
    <property name="block" type="bool" value="true"/>
    <property name="destructible" type="bool" value="false"/>
    <property name="visible" type="bool" value="false"/>
   </properties>
  </object>
  <object id="602" gid="16" x="608" y="384" width="32" height="32">
   <properties>
    <property name="block" type="bool" value="true"/>
    <property name="destructible" type="bool" value="false"/>
    <property name="visible" type="bool" value="false"/>
   </properties>
  </object>
  <object id="603" gid="16" x="608" y="352" width="32" height="32">
   <properties>
    <property name="block" type="bool" value="true"/>
    <property name="destructible" type="bool" value="false"/>
    <property name="visible" type="bool" value="false"/>
   </properties>
  </object>
  <object id="604" gid="16" x="608" y="320" width="32" height="32">
   <properties>
    <property name="block" type="bool" value="true"/>
    <property name="destructible" type="bool" value="false"/>
    <property name="visible" type="bool" value="false"/>
   </properties>
  </object>
  <object id="605" gid="16" x="640" y="320" width="32" height="32">
   <properties>
    <property name="block" type="bool" value="true"/>
    <property name="destructible" type="bool" value="false"/>
    <property name="visible" type="bool" value="false"/>
   </properties>
  </object>
  <object id="606" gid="16" x="640" y="352" width="32" height="32">
   <properties>
    <property name="block" type="bool" value="true"/>
    <property name="destructible" type="bool" value="false"/>
    <property name="visible" type="bool" value="false"/>
   </properties>
  </object>
  <object id="607" gid="16" x="640" y="384" width="32" height="32">
   <properties>
    <property name="block" type="bool" value="true"/>
    <property name="destructible" type="bool" value="false"/>
    <property name="visible" type="bool" value="false"/>
   </properties>
  </object>
  <object id="608" gid="16" x="640" y="416" width="32" height="32">
   <properties>
    <property name="block" type="bool" value="true"/>
    <property name="destructible" type="bool" value="false"/>
    <property name="visible" type="bool" value="false"/>
   </properties>
  </object>
  <object id="609" gid="16" x="640" y="448" width="32" height="32">
   <properties>
    <property name="block" type="bool" value="true"/>
    <property name="destructible" type="bool" value="false"/>
    <property name="visible" type="bool" value="false"/>
   </properties>
  </object>
  <object id="610" gid="16" x="640" y="480" width="32" height="32">
   <properties>
    <property name="block" type="bool" value="true"/>
    <property name="destructible" type="bool" value="false"/>
    <property name="visible" type="bool" value="false"/>
   </properties>
  </object>
  <object id="611" gid="16" x="640" y="512" width="32" height="32">
   <properties>
    <property name="block" type="bool" value="true"/>
    <property name="destructible" type="bool" value="false"/>
    <property name="visible" type="bool" value="false"/>
   </properties>
  </object>
  <object id="612" gid="16" x="640" y="544" width="32" height="32">
   <properties>
    <property name="block" type="bool" value="true"/>
    <property name="destructible" type="bool" value="false"/>
    <property name="visible" type="bool" value="false"/>
   </properties>
  </object>
  <object id="613" gid="16" x="640" y="576" width="32" height="32">
   <properties>
    <property name="block" type="bool" value="true"/>
    <property name="destructible" type="bool" value="false"/>
    <property name="visible" type="bool" value="false"/>
   </properties>
  </object>
  <object id="614" gid="16" x="640" y="608" width="32" height="32">
   <properties>
    <property name="block" type="bool" value="true"/>
    <property name="destructible" type="bool" value="false"/>
    <property name="visible" type="bool" value="false"/>
   </properties>
  </object>
  <object id="615" gid="16" x="640" y="640" width="32" height="32">
   <properties>
    <property name="block" type="bool" value="true"/>
    <property name="destructible" type="bool" value="false"/>
    <property name="visible" type="bool" value="false"/>
   </properties>
  </object>
  <object id="616" gid="16" x="608" y="256" width="32" height="32">
   <properties>
    <property name="block" type="bool" value="true"/>
    <property name="destructible" type="bool" value="false"/>
    <property name="visible" type="bool" value="false"/>
   </properties>
  </object>
  <object id="617" gid="16" x="640" y="256" width="32" height="32">
   <properties>
    <property name="block" type="bool" value="true"/>
    <property name="destructible" type="bool" value="false"/>
    <property name="visible" type="bool" value="false"/>
   </properties>
  </object>
  <object id="618" gid="16" x="640" y="224" width="32" height="32">
   <properties>
    <property name="block" type="bool" value="true"/>
    <property name="destructible" type="bool" value="false"/>
    <property name="visible" type="bool" value="false"/>
   </properties>
  </object>
  <object id="619" gid="16" x="608" y="224" width="32" height="32">
   <properties>
    <property name="block" type="bool" value="true"/>
    <property name="destructible" type="bool" value="false"/>
    <property name="visible" type="bool" value="false"/>
   </properties>
  </object>
  <object id="620" gid="16" x="608" y="192" width="32" height="32">
   <properties>
    <property name="block" type="bool" value="true"/>
    <property name="destructible" type="bool" value="false"/>
    <property name="visible" type="bool" value="false"/>
   </properties>
  </object>
  <object id="621" gid="16" x="576" y="192" width="32" height="32">
   <properties>
    <property name="block" type="bool" value="true"/>
    <property name="destructible" type="bool" value="false"/>
    <property name="visible" type="bool" value="false"/>
   </properties>
  </object>
  <object id="622" gid="16" x="576" y="160" width="32" height="32">
   <properties>
    <property name="block" type="bool" value="true"/>
    <property name="destructible" type="bool" value="false"/>
    <property name="visible" type="bool" value="false"/>
   </properties>
  </object>
  <object id="623" gid="16" x="544" y="160" width="32" height="32">
   <properties>
    <property name="block" type="bool" value="true"/>
    <property name="destructible" type="bool" value="false"/>
    <property name="visible" type="bool" value="false"/>
   </properties>
  </object>
  <object id="624" gid="16" x="544" y="128" width="32" height="32">
   <properties>
    <property name="block" type="bool" value="true"/>
    <property name="destructible" type="bool" value="false"/>
    <property name="visible" type="bool" value="false"/>
   </properties>
  </object>
  <object id="625" gid="16" x="544" y="96" width="32" height="32">
   <properties>
    <property name="block" type="bool" value="true"/>
    <property name="destructible" type="bool" value="false"/>
    <property name="visible" type="bool" value="false"/>
   </properties>
  </object>
  <object id="626" gid="16" x="544" y="64" width="32" height="32">
   <properties>
    <property name="block" type="bool" value="true"/>
    <property name="destructible" type="bool" value="false"/>
    <property name="visible" type="bool" value="false"/>
   </properties>
  </object>
  <object id="627" gid="16" x="544" y="32" width="32" height="32">
   <properties>
    <property name="block" type="bool" value="true"/>
    <property name="destructible" type="bool" value="false"/>
    <property name="visible" type="bool" value="false"/>
   </properties>
  </object>
  <object id="628" gid="16" x="512" y="32" width="32" height="32">
   <properties>
    <property name="block" type="bool" value="true"/>
    <property name="destructible" type="bool" value="false"/>
    <property name="visible" type="bool" value="false"/>
   </properties>
  </object>
  <object id="629" gid="16" x="480" y="32" width="32" height="32">
   <properties>
    <property name="block" type="bool" value="true"/>
    <property name="destructible" type="bool" value="false"/>
    <property name="visible" type="bool" value="false"/>
   </properties>
  </object>
  <object id="630" gid="16" x="448" y="32" width="32" height="32">
   <properties>
    <property name="block" type="bool" value="true"/>
    <property name="destructible" type="bool" value="false"/>
    <property name="visible" type="bool" value="false"/>
   </properties>
  </object>
  <object id="631" gid="16" x="416" y="32" width="32" height="32">
   <properties>
    <property name="block" type="bool" value="true"/>
    <property name="destructible" type="bool" value="false"/>
    <property name="visible" type="bool" value="false"/>
   </properties>
  </object>
  <object id="632" gid="16" x="384" y="32" width="32" height="32">
   <properties>
    <property name="block" type="bool" value="true"/>
    <property name="destructible" type="bool" value="false"/>
    <property name="visible" type="bool" value="false"/>
   </properties>
  </object>
  <object id="633" gid="16" x="352" y="32" width="32" height="32">
   <properties>
    <property name="block" type="bool" value="true"/>
    <property name="destructible" type="bool" value="false"/>
    <property name="visible" type="bool" value="false"/>
   </properties>
  </object>
  <object id="634" gid="16" x="320" y="32" width="32" height="32">
   <properties>
    <property name="block" type="bool" value="true"/>
    <property name="destructible" type="bool" value="false"/>
    <property name="visible" type="bool" value="false"/>
   </properties>
  </object>
  <object id="635" gid="16" x="288" y="32" width="32" height="32">
   <properties>
    <property name="block" type="bool" value="true"/>
    <property name="destructible" type="bool" value="false"/>
    <property name="visible" type="bool" value="false"/>
   </properties>
  </object>
  <object id="636" gid="16" x="256" y="32" width="32" height="32">
   <properties>
    <property name="block" type="bool" value="true"/>
    <property name="destructible" type="bool" value="false"/>
    <property name="visible" type="bool" value="false"/>
   </properties>
  </object>
  <object id="637" gid="16" x="224" y="32" width="32" height="32">
   <properties>
    <property name="block" type="bool" value="true"/>
    <property name="destructible" type="bool" value="false"/>
    <property name="visible" type="bool" value="false"/>
   </properties>
  </object>
  <object id="638" gid="16" x="192" y="32" width="32" height="32">
   <properties>
    <property name="block" type="bool" value="true"/>
    <property name="destructible" type="bool" value="false"/>
    <property name="visible" type="bool" value="false"/>
   </properties>
  </object>
  <object id="639" gid="16" x="160" y="32" width="32" height="32">
   <properties>
    <property name="block" type="bool" value="true"/>
    <property name="destructible" type="bool" value="false"/>
    <property name="visible" type="bool" value="false"/>
   </properties>
  </object>
  <object id="640" gid="16" x="128" y="32" width="32" height="32">
   <properties>
    <property name="block" type="bool" value="true"/>
    <property name="destructible" type="bool" value="false"/>
    <property name="visible" type="bool" value="false"/>
   </properties>
  </object>
  <object id="641" gid="16" x="128" y="64" width="32" height="32">
   <properties>
    <property name="block" type="bool" value="true"/>
    <property name="destructible" type="bool" value="false"/>
    <property name="visible" type="bool" value="false"/>
   </properties>
  </object>
  <object id="642" gid="16" x="160" y="64" width="32" height="32">
   <properties>
    <property name="block" type="bool" value="true"/>
    <property name="destructible" type="bool" value="false"/>
    <property name="visible" type="bool" value="false"/>
   </properties>
  </object>
  <object id="643" gid="16" x="160" y="96" width="32" height="32">
   <properties>
    <property name="block" type="bool" value="true"/>
    <property name="destructible" type="bool" value="false"/>
    <property name="visible" type="bool" value="false"/>
   </properties>
  </object>
  <object id="644" gid="16" x="128" y="96" width="32" height="32">
   <properties>
    <property name="block" type="bool" value="true"/>
    <property name="destructible" type="bool" value="false"/>
    <property name="visible" type="bool" value="false"/>
   </properties>
  </object>
  <object id="645" gid="16" x="128" y="128" width="32" height="32">
   <properties>
    <property name="block" type="bool" value="true"/>
    <property name="destructible" type="bool" value="false"/>
    <property name="visible" type="bool" value="false"/>
   </properties>
  </object>
  <object id="646" gid="16" x="96" y="128" width="32" height="32">
   <properties>
    <property name="block" type="bool" value="true"/>
    <property name="destructible" type="bool" value="false"/>
    <property name="visible" type="bool" value="false"/>
   </properties>
  </object>
  <object id="647" gid="16" x="96" y="160" width="32" height="32">
   <properties>
    <property name="block" type="bool" value="true"/>
    <property name="destructible" type="bool" value="false"/>
    <property name="visible" type="bool" value="false"/>
   </properties>
  </object>
  <object id="648" gid="16" x="96" y="192" width="32" height="32">
   <properties>
    <property name="block" type="bool" value="true"/>
    <property name="destructible" type="bool" value="false"/>
    <property name="visible" type="bool" value="false"/>
   </properties>
  </object>
  <object id="649" gid="16" x="96" y="224" width="32" height="32">
   <properties>
    <property name="block" type="bool" value="true"/>
    <property name="destructible" type="bool" value="false"/>
    <property name="visible" type="bool" value="false"/>
   </properties>
  </object>
  <object id="650" gid="16" x="96" y="256" width="32" height="32">
   <properties>
    <property name="block" type="bool" value="true"/>
    <property name="destructible" type="bool" value="false"/>
    <property name="visible" type="bool" value="false"/>
   </properties>
  </object>
  <object id="651" gid="16" x="96" y="288" width="32" height="32">
   <properties>
    <property name="block" type="bool" value="true"/>
    <property name="destructible" type="bool" value="false"/>
    <property name="visible" type="bool" value="false"/>
   </properties>
  </object>
  <object id="652" gid="16" x="96" y="320" width="32" height="32">
   <properties>
    <property name="block" type="bool" value="true"/>
    <property name="destructible" type="bool" value="false"/>
    <property name="visible" type="bool" value="false"/>
   </properties>
  </object>
  <object id="653" gid="16" x="640" y="192" width="32" height="32">
   <properties>
    <property name="block" type="bool" value="true"/>
    <property name="destructible" type="bool" value="false"/>
    <property name="visible" type="bool" value="false"/>
   </properties>
  </object>
  <object id="654" gid="16" x="640" y="160" width="32" height="32">
   <properties>
    <property name="block" type="bool" value="true"/>
    <property name="destructible" type="bool" value="false"/>
    <property name="visible" type="bool" value="false"/>
   </properties>
  </object>
  <object id="655" gid="16" x="640" y="128" width="32" height="32">
   <properties>
    <property name="block" type="bool" value="true"/>
    <property name="destructible" type="bool" value="false"/>
    <property name="visible" type="bool" value="false"/>
   </properties>
  </object>
  <object id="656" gid="16" x="640" y="96" width="32" height="32">
   <properties>
    <property name="block" type="bool" value="true"/>
    <property name="destructible" type="bool" value="false"/>
    <property name="visible" type="bool" value="false"/>
   </properties>
  </object>
  <object id="657" gid="16" x="640" y="64" width="32" height="32">
   <properties>
    <property name="block" type="bool" value="true"/>
    <property name="destructible" type="bool" value="false"/>
    <property name="visible" type="bool" value="false"/>
   </properties>
  </object>
  <object id="658" gid="16" x="672" y="64" width="32" height="32">
   <properties>
    <property name="block" type="bool" value="true"/>
    <property name="destructible" type="bool" value="false"/>
    <property name="visible" type="bool" value="false"/>
   </properties>
  </object>
  <object id="659" gid="16" x="704" y="64" width="32" height="32">
   <properties>
    <property name="block" type="bool" value="true"/>
    <property name="destructible" type="bool" value="false"/>
    <property name="visible" type="bool" value="false"/>
   </properties>
  </object>
  <object id="660" gid="16" x="736" y="64" width="32" height="32">
   <properties>
    <property name="block" type="bool" value="true"/>
    <property name="destructible" type="bool" value="false"/>
    <property name="visible" type="bool" value="false"/>
   </properties>
  </object>
  <object id="661" gid="16" x="768" y="64" width="32" height="32">
   <properties>
    <property name="block" type="bool" value="true"/>
    <property name="destructible" type="bool" value="false"/>
    <property name="visible" type="bool" value="false"/>
   </properties>
  </object>
  <object id="662" gid="16" x="800" y="64" width="32" height="32">
   <properties>
    <property name="block" type="bool" value="true"/>
    <property name="destructible" type="bool" value="false"/>
    <property name="visible" type="bool" value="false"/>
   </properties>
  </object>
  <object id="663" gid="16" x="832" y="64" width="32" height="32">
   <properties>
    <property name="block" type="bool" value="true"/>
    <property name="destructible" type="bool" value="false"/>
    <property name="visible" type="bool" value="false"/>
   </properties>
  </object>
  <object id="664" gid="16" x="832" y="96" width="32" height="32">
   <properties>
    <property name="block" type="bool" value="true"/>
    <property name="destructible" type="bool" value="false"/>
    <property name="visible" type="bool" value="false"/>
   </properties>
  </object>
  <object id="665" gid="16" x="864" y="96" width="32" height="32">
   <properties>
    <property name="block" type="bool" value="true"/>
    <property name="destructible" type="bool" value="false"/>
    <property name="visible" type="bool" value="false"/>
   </properties>
  </object>
  <object id="666" gid="16" x="864" y="128" width="32" height="32">
   <properties>
    <property name="block" type="bool" value="true"/>
    <property name="destructible" type="bool" value="false"/>
    <property name="visible" type="bool" value="false"/>
   </properties>
  </object>
  <object id="667" gid="16" x="896" y="128" width="32" height="32">
   <properties>
    <property name="block" type="bool" value="true"/>
    <property name="destructible" type="bool" value="false"/>
    <property name="visible" type="bool" value="false"/>
   </properties>
  </object>
  <object id="668" gid="16" x="896" y="160" width="32" height="32">
   <properties>
    <property name="block" type="bool" value="true"/>
    <property name="destructible" type="bool" value="false"/>
    <property name="visible" type="bool" value="false"/>
   </properties>
  </object>
  <object id="669" gid="16" x="928" y="160" width="32" height="32">
   <properties>
    <property name="block" type="bool" value="true"/>
    <property name="destructible" type="bool" value="false"/>
    <property name="visible" type="bool" value="false"/>
   </properties>
  </object>
  <object id="670" gid="16" x="928" y="192" width="32" height="32">
   <properties>
    <property name="block" type="bool" value="true"/>
    <property name="destructible" type="bool" value="false"/>
    <property name="visible" type="bool" value="false"/>
   </properties>
  </object>
  <object id="671" gid="16" x="960" y="192" width="32" height="32">
   <properties>
    <property name="block" type="bool" value="true"/>
    <property name="destructible" type="bool" value="false"/>
    <property name="visible" type="bool" value="false"/>
   </properties>
  </object>
  <object id="672" gid="16" x="992" y="192" width="32" height="32">
   <properties>
    <property name="block" type="bool" value="true"/>
    <property name="destructible" type="bool" value="false"/>
    <property name="visible" type="bool" value="false"/>
   </properties>
  </object>
  <object id="673" gid="16" x="1024" y="192" width="32" height="32">
   <properties>
    <property name="block" type="bool" value="true"/>
    <property name="destructible" type="bool" value="false"/>
    <property name="visible" type="bool" value="false"/>
   </properties>
  </object>
  <object id="674" name="PlayerSpawn1" gid="1" x="128" y="576" width="32" height="32"/>
  <object id="676" name="PlayerSpawn2" gid="2" x="128" y="640" width="32" height="32"/>
  <object id="690" name="BlockerSlime" gid="7" x="576" y="288" width="32" height="32">
   <properties>
    <property name="block" type="bool" value="true"/>
    <property name="destructible" type="bool" value="true"/>
    <property name="visible" type="bool" value="true"/>
   </properties>
  </object>
  <object id="693" gid="15" x="649" y="294" width="32" height="32"/>
  <object id="694" gid="15" x="648" y="271" width="32" height="32"/>
  <object id="697" gid="15" x="599" y="294" width="32" height="32"/>
  <object id="698" gid="15" x="599" y="271" width="32" height="32"/>
  <object id="706" gid="15" x="73" y="581.833" width="32" height="32"/>
  <object id="707" gid="15" x="72" y="558.833" width="32" height="32"/>
  <object id="708" gid="15" x="23" y="581.833" width="32" height="32"/>
  <object id="709" gid="15" x="23" y="558.833" width="32" height="32"/>
  <object id="710" gid="16" x="64" y="320" width="32" height="32">
   <properties>
    <property name="block" type="bool" value="true"/>
    <property name="destructible" type="bool" value="false"/>
    <property name="visible" type="bool" value="false"/>
   </properties>
  </object>
  <object id="711" gid="16" x="64" y="352" width="32" height="32">
   <properties>
    <property name="block" type="bool" value="true"/>
    <property name="destructible" type="bool" value="false"/>
    <property name="visible" type="bool" value="false"/>
   </properties>
  </object>
  <object id="712" gid="16" x="64" y="384" width="32" height="32">
   <properties>
    <property name="block" type="bool" value="true"/>
    <property name="destructible" type="bool" value="false"/>
    <property name="visible" type="bool" value="false"/>
   </properties>
  </object>
  <object id="713" gid="16" x="64" y="416" width="32" height="32">
   <properties>
    <property name="block" type="bool" value="true"/>
    <property name="destructible" type="bool" value="false"/>
    <property name="visible" type="bool" value="false"/>
   </properties>
  </object>
  <object id="714" gid="16" x="64" y="448" width="32" height="32">
   <properties>
    <property name="block" type="bool" value="true"/>
    <property name="destructible" type="bool" value="false"/>
    <property name="visible" type="bool" value="false"/>
   </properties>
  </object>
  <object id="715" gid="16" x="64" y="480" width="32" height="32">
   <properties>
    <property name="block" type="bool" value="true"/>
    <property name="destructible" type="bool" value="false"/>
    <property name="visible" type="bool" value="false"/>
   </properties>
  </object>
  <object id="716" gid="16" x="64" y="512" width="32" height="32">
   <properties>
    <property name="block" type="bool" value="true"/>
    <property name="destructible" type="bool" value="false"/>
    <property name="visible" type="bool" value="false"/>
   </properties>
  </object>
  <object id="717" gid="16" x="64" y="544" width="32" height="32">
   <properties>
    <property name="block" type="bool" value="true"/>
    <property name="destructible" type="bool" value="false"/>
    <property name="visible" type="bool" value="false"/>
   </properties>
  </object>
  <object id="718" gid="16" x="64" y="576" width="32" height="32">
   <properties>
    <property name="block" type="bool" value="true"/>
    <property name="destructible" type="bool" value="false"/>
    <property name="visible" type="bool" value="false"/>
   </properties>
  </object>
  <object id="719" gid="16" x="64" y="608" width="32" height="32">
   <properties>
    <property name="block" type="bool" value="true"/>
    <property name="destructible" type="bool" value="false"/>
    <property name="visible" type="bool" value="false"/>
   </properties>
  </object>
  <object id="720" gid="16" x="64" y="640" width="32" height="32">
   <properties>
    <property name="block" type="bool" value="true"/>
    <property name="destructible" type="bool" value="false"/>
    <property name="visible" type="bool" value="false"/>
   </properties>
  </object>
  <object id="721" gid="16" x="1056" y="192" width="32" height="32">
   <properties>
    <property name="block" type="bool" value="true"/>
    <property name="destructible" type="bool" value="false"/>
    <property name="visible" type="bool" value="false"/>
   </properties>
  </object>
  <object id="722" gid="16" x="1056" y="224" width="32" height="32">
   <properties>
    <property name="block" type="bool" value="true"/>
    <property name="destructible" type="bool" value="false"/>
    <property name="visible" type="bool" value="false"/>
   </properties>
  </object>
  <object id="723" gid="16" x="1056" y="256" width="32" height="32">
   <properties>
    <property name="block" type="bool" value="true"/>
    <property name="destructible" type="bool" value="false"/>
    <property name="visible" type="bool" value="false"/>
   </properties>
  </object>
  <object id="724" gid="16" x="1088" y="384" width="32" height="32">
   <properties>
    <property name="block" type="bool" value="true"/>
    <property name="destructible" type="bool" value="false"/>
    <property name="visible" type="bool" value="false"/>
   </properties>
  </object>
  <object id="725" gid="16" x="1088" y="256" width="32" height="32">
   <properties>
    <property name="block" type="bool" value="true"/>
    <property name="destructible" type="bool" value="false"/>
    <property name="visible" type="bool" value="false"/>
   </properties>
  </object>
  <object id="726" gid="16" x="1088" y="288" width="32" height="32">
   <properties>
    <property name="block" type="bool" value="true"/>
    <property name="destructible" type="bool" value="false"/>
    <property name="visible" type="bool" value="false"/>
   </properties>
  </object>
  <object id="727" gid="16" x="1088" y="320" width="32" height="32">
   <properties>
    <property name="block" type="bool" value="true"/>
    <property name="destructible" type="bool" value="false"/>
    <property name="visible" type="bool" value="false"/>
   </properties>
  </object>
  <object id="728" gid="16" x="1088" y="352" width="32" height="32">
   <properties>
    <property name="block" type="bool" value="true"/>
    <property name="destructible" type="bool" value="false"/>
    <property name="visible" type="bool" value="false"/>
   </properties>
  </object>
  <object id="729" gid="16" x="1088" y="416" width="32" height="32">
   <properties>
    <property name="block" type="bool" value="true"/>
    <property name="destructible" type="bool" value="false"/>
    <property name="visible" type="bool" value="false"/>
   </properties>
  </object>
  <object id="730" gid="16" x="1088" y="448" width="32" height="32">
   <properties>
    <property name="block" type="bool" value="true"/>
    <property name="destructible" type="bool" value="false"/>
    <property name="visible" type="bool" value="false"/>
   </properties>
  </object>
  <object id="731" gid="16" x="1088" y="480" width="32" height="32">
   <properties>
    <property name="block" type="bool" value="true"/>
    <property name="destructible" type="bool" value="false"/>
    <property name="visible" type="bool" value="false"/>
   </properties>
  </object>
  <object id="732" gid="16" x="1088" y="512" width="32" height="32">
   <properties>
    <property name="block" type="bool" value="true"/>
    <property name="destructible" type="bool" value="false"/>
    <property name="visible" type="bool" value="false"/>
   </properties>
  </object>
  <object id="733" gid="16" x="1088" y="544" width="32" height="32">
   <properties>
    <property name="block" type="bool" value="true"/>
    <property name="destructible" type="bool" value="false"/>
    <property name="visible" type="bool" value="false"/>
   </properties>
  </object>
  <object id="734" gid="16" x="1088" y="576" width="32" height="32">
   <properties>
    <property name="block" type="bool" value="true"/>
    <property name="destructible" type="bool" value="false"/>
    <property name="visible" type="bool" value="false"/>
   </properties>
  </object>
  <object id="735" gid="16" x="1088" y="608" width="32" height="32">
   <properties>
    <property name="block" type="bool" value="true"/>
    <property name="destructible" type="bool" value="false"/>
    <property name="visible" type="bool" value="false"/>
   </properties>
  </object>
  <object id="736" gid="16" x="1088" y="640" width="32" height="32">
   <properties>
    <property name="block" type="bool" value="true"/>
    <property name="destructible" type="bool" value="false"/>
    <property name="visible" type="bool" value="false"/>
   </properties>
  </object>
 </objectgroup>
</map>
